X: 1509
T: Andy Dickson's
R: reel
M: 4/4
K: Dmajor
F2FE FEDE|FAdB AF~F2|D2FA dBAF|GEED EFDE|
~F3E FEDE|FAdB AF~F2|D2FA dBAF|GECE D4:|
|:fd~d2 edce|dF~F2 BAAd|fd~d2 edcA|Bdgb a2ag|
fd~d2 edce|dF~F2 BAAF|DEFA dBAF|EDCE D4:|

